libs/ui/packages/crypto-icons/src/svg/NYX.svg

<svg width="32" height="32" viewBox="0 0 32 32" fill="none">
<path d="M31.75 16C31.75 24.6985 24.6985 31.75 16 31.75C7.30151 31.75 0.25 24.6985 0.25 16C0.25 7.30151 7.30151 0.25 16 0.25C24.6985 0.25 31.75 7.30151 31.75 16Z" fill="#f35135" stroke="white" stroke-width="0.5"/>
<path d="M23.0686 8.93137C19.1701 5.02288 12.8315 5.02288 8.93137 8.93137C5.02288 12.8399 5.02288 19.1685 8.93137 23.0686C12.8399 26.9771 19.1685 26.9771 23.0686 23.0686C26.9771 19.1701 26.9771 12.8299 23.0686 8.93137ZM22.2086 22.2086C18.7801 25.6371 13.2099 25.6371 9.78141 22.2086C6.35293 18.7801 6.35293 13.2099 9.78141 9.78141C13.2099 6.35293 18.7801 6.35293 22.2086 9.78141C25.6487 13.2199 25.6487 18.7801 22.2086 22.2086Z" fill="white"/>
<path d="M21.3987 21.8296V10.1724C20.8907 9.69127 20.3226 9.27783 19.7086 8.94235V20.0895L12.3516 8.90234C11.7127 9.23919 11.1237 9.66327 10.6016 10.1624V21.8296C11.1096 22.3107 11.6776 22.7241 12.2916 23.0596V11.9125L19.6503 23.0996C20.2888 22.7588 20.8771 22.3314 21.3987 21.8296Z" fill="white"/>
</svg>

<svg width="32" height="32" viewBox="0 0 32 32" fill="none"><path fill="#f35135" stroke="#fff" stroke-width=".5" d="M31.75 16c0 8.699-7.052 15.75-15.75 15.75S.25 24.698.25 16 7.302.25 16 .25 31.75 7.302 31.75 16Z"/><path fill="#fff" d="M23.069 8.931c-3.899-3.908-10.237-3.908-14.138 0-3.908 3.909-3.908 10.238 0 14.138 3.909 3.908 10.238 3.908 14.138 0 3.908-3.899 3.908-10.24 0-14.138m-.86 13.278c-3.429 3.428-9 3.428-12.428 0s-3.428-9 0-12.428 9-3.428 12.428 0c3.44 3.439 3.44 9 0 12.428"/><path fill="#fff" d="M21.399 21.83V10.172a8 8 0 0 0-1.69-1.23V20.09L12.352 8.902a7.8 7.8 0 0 0-1.75 1.26V21.83a8 8 0 0 0 1.69 1.23V11.913L19.65 23.1a8 8 0 0 0 1.749-1.27"/></svg>
